static/img/kroki/4853303a39c4af81d98bd7bb8f9f5df1.svg

<?xml version="1.0" encoding="us-ascii" standalone="no"?><svg xmlns="http://www.w3.org/2000/svg" xmlns:xlink="http://www.w3.org/1999/xlink" contentStyleType="text/css" height="252px" preserveAspectRatio="none" style="width:497px;height:252px;" version="1.1" viewBox="0 0 497 252" width="497px" zoomAndPan="magnify"><defs/><g><!--class aws_backup_protected_resource--><g id="elem_aws_backup_protected_resource"><rect codeLine="23" fill="#3D176E" height="39.7891" id="aws_backup_protected_resource" rx="2.5" ry="2.5" style="stroke:#000D19;stroke-width:0.5;" width="311" x="7" y="7"/><ellipse cx="22" cy="26.8945" fill="#ADD1B2" rx="11" ry="11" style="stroke:#181818;stroke-width:1.0;"/><path d="M24.9688,32.5352 Q24.3906,32.832 23.75,32.9727 Q23.1094,33.1289 22.4063,33.1289 Q19.9063,33.1289 18.5781,31.4883 Q17.2656,29.832 17.2656,26.707 Q17.2656,23.582 18.5781,21.9258 Q19.9063,20.2695 22.4063,20.2695 Q23.1094,20.2695 23.75,20.4258 Q24.4063,20.582 24.9688,20.8789 L24.9688,23.5977 Q24.3438,23.0195 23.75,22.7539 Q23.1563,22.4727 22.5313,22.4727 Q21.1875,22.4727 20.5,23.5508 Q19.8125,24.6133 19.8125,26.707 Q19.8125,28.8008 20.5,29.8789 Q21.1875,30.9414 22.5313,30.9414 Q23.1563,30.9414 23.75,30.6758 Q24.3438,30.3945 24.9688,29.8164 L24.9688,32.5352 Z " fill="#000000"/><text fill="#D9B8FF" font-family="Helvetica" font-size="17" lengthAdjust="spacing" textLength="269" x="41" y="32.7798">aws_backup_protected_resource</text></g><!--class aws_cloudformation_stack--><g id="elem_aws_cloudformation_stack"><rect codeLine="26" fill="#3D176E" height="39.7891" id="aws_cloudformation_stack" rx="2.5" ry="2.5" style="stroke:#000D19;stroke-width:0.5;" width="263" x="160" y="106.79"/><ellipse cx="175" cy="126.6845" fill="#ADD1B2" rx="11" ry="11" style="stroke:#181818;stroke-width:1.0;"/><path d="M177.9688,132.3252 Q177.3906,132.622 176.75,132.7627 Q176.1094,132.9189 175.4063,132.9189 Q172.9063,132.9189 171.5781,131.2783 Q170.2656,129.622 170.2656,126.497 Q170.2656,123.372 171.5781,121.7158 Q172.9063,120.0595 175.4063,120.0595 Q176.1094,120.0595 176.75,120.2158 Q177.4063,120.372 177.9688,120.6689 L177.9688,123.3877 Q177.3438,122.8095 176.75,122.5439 Q176.1563,122.2627 175.5313,122.2627 Q174.1875,122.2627 173.5,123.3408 Q172.8125,124.4033 172.8125,126.497 Q172.8125,128.5908 173.5,129.6689 Q174.1875,130.7314 175.5313,130.7314 Q176.1563,130.7314 176.75,130.4658 Q177.3438,130.1845 177.9688,129.6064 L177.9688,132.3252 Z " fill="#000000"/><text fill="#D9B8FF" font-family="Helvetica" font-size="17" lengthAdjust="spacing" textLength="221" x="194" y="132.5698">aws_cloudformation_stack</text></g><!--class aws_region--><g id="elem_aws_region"><rect codeLine="29" fill="#3D176E" height="39.7891" id="aws_region" rx="2.5" ry="2.5" style="stroke:#000D19;stroke-width:0.5;" width="137" x="353" y="7"/><ellipse cx="368" cy="26.8945" fill="#ADD1B2" rx="11" ry="11" style="stroke:#181818;stroke-width:1.0;"/><path d="M370.9688,32.5352 Q370.3906,32.832 369.75,32.9727 Q369.1094,33.1289 368.4063,33.1289 Q365.9063,33.1289 364.5781,31.4883 Q363.2656,29.832 363.2656,26.707 Q363.2656,23.582 364.5781,21.9258 Q365.9063,20.2695 368.4063,20.2695 Q369.1094,20.2695 369.75,20.4258 Q370.4063,20.582 370.9688,20.8789 L370.9688,23.5977 Q370.3438,23.0195 369.75,22.7539 Q369.1563,22.4727 368.5313,22.4727 Q367.1875,22.4727 366.5,23.5508 Q365.8125,24.6133 365.8125,26.707 Q365.8125,28.8008 366.5,29.8789 Q367.1875,30.9414 368.5313,30.9414 Q369.1563,30.9414 369.75,30.6758 Q370.3438,30.3945 370.9688,29.8164 L370.9688,32.5352 Z " fill="#000000"/><text fill="#D9B8FF" font-family="Helvetica" font-size="17" lengthAdjust="spacing" textLength="95" x="387" y="32.7798">aws_region</text></g><!--class aws_resource--><g id="elem_aws_resource"><rect codeLine="32" fill="#3D176E" height="39.7891" id="aws_resource" rx="2.5" ry="2.5" style="stroke:#000D19;stroke-width:0.5;" width="155" x="214" y="206.58"/><ellipse cx="229" cy="226.4745" fill="#ADD1B2" rx="11" ry="11" style="stroke:#181818;stroke-width:1.0;"/><path d="M231.9688,232.1152 Q231.3906,232.412 230.75,232.5527 Q230.1094,232.7089 229.4063,232.7089 Q226.9063,232.7089 225.5781,231.0683 Q224.2656,229.412 224.2656,226.287 Q224.2656,223.162 225.5781,221.5058 Q226.9063,219.8495 229.4063,219.8495 Q230.1094,219.8495 230.75,220.0058 Q231.4063,220.162 231.9688,220.4589 L231.9688,223.1777 Q231.3438,222.5995 230.75,222.3339 Q230.1563,222.0527 229.5313,222.0527 Q228.1875,222.0527 227.5,223.1308 Q226.8125,224.1933 226.8125,226.287 Q226.8125,228.3808 227.5,229.4589 Q228.1875,230.5214 229.5313,230.5214 Q230.1563,230.5214 230.75,230.2558 Q231.3438,229.9745 231.9688,229.3964 L231.9688,232.1152 Z " fill="#000000"/><text fill="#D9B8FF" font-family="Helvetica" font-size="17" lengthAdjust="spacing" textLength="113" x="248" y="232.3598">aws_resource</text></g><!--link aws_backup_protected_resource to aws_cloudformation_stack--><g id="link_aws_backup_protected_resource_aws_cloudformation_stack"><path codeLine="35" d="M187.99,47.22 C210.6,64.36 238.6894,85.6443 261.2894,102.7843 " fill="none" id="aws_backup_protected_resource-to-aws_cloudformation_stack" style="stroke:#1A83AF;stroke-width:2.0;"/><polygon fill="#1A83AF" points="266.07,106.41,261.3162,97.7844,262.0861,103.3886,256.4819,104.1586,266.07,106.41" style="stroke:#1A83AF;stroke-width:2.0;"/></g><!--link aws_cloudformation_stack to aws_resource--><g id="link_aws_cloudformation_stack_aws_resource"><path codeLine="36" d="M291.5,147.01 C291.5,164.15 291.5,183.06 291.5,200.2 " fill="none" id="aws_cloudformation_stack-to-aws_resource" style="stroke:#1A83AF;stroke-width:2.0;"/><polygon fill="#1A83AF" points="291.5,206.2,295.5,197.2,291.5,201.2,287.5,197.2,291.5,206.2" style="stroke:#1A83AF;stroke-width:2.0;"/></g><!--link aws_region to aws_cloudformation_stack--><g id="link_aws_region_aws_cloudformation_stack"><path codeLine="37" d="M395.82,47.22 C373.03,64.36 344.7044,85.6626 321.9244,102.8026 " fill="none" id="aws_region-to-aws_cloudformation_stack" style="stroke:#1A83AF;stroke-width:2.0;"/><polygon fill="#1A83AF" points="317.13,106.41,326.7266,104.1952,321.1254,103.4038,321.9167,97.8026,317.13,106.41" style="stroke:#1A83AF;stroke-width:2.0;"/></g><!--SRC=[ZP11IyD048Nl-HKBFHSQYxQz2B5Gz5B4UXC9aztPTcco6sOdbYh-TrEhicPDwtNUD_FUcurHAB2gUIygh0ead_YjiJKGL28ZShkvAns9WTQWnvEkk72Mpm9Bg53SOlc2R2HqYSUDaLkBtekBGBe1kLsJQwmwdcS2wri9BGVKl0JlCsOoHSCOX56pOgfrb-mU7OnLEhd227EaaBwGqMYaqbaNEMjrilSFiJAlADBmQKl76CMCB3wfaoaFH10oAlgjzsQy1wMCNOlBOFPmp4GMwTTyjG7bTWTQG-b36yz8w7XVupngXREfqfC_uRi-E967rmdO-RneaQREQsgRI4QL4thNa4JnbYJl0IXBroZjg08spkQUsyKkGxXkjNWQNZnjEdmQfDbqd2sUXzUzjabldcZz-t0InFkVnmS0]--></g></svg>

<svg xmlns="http://www.w3.org/2000/svg" width="497" height="252" viewBox="0 0 497 252"><rect width="311" height="39.789" x="7" y="7" fill="#3D176E" rx="2.5" ry="2.5" style="stroke:#000d19;stroke-width:.5"/><circle cx="22" cy="26.895" r="11" fill="#ADD1B2" style="stroke:#181818;stroke-width:1"/><path d="M24.969 32.535q-.578.297-1.219.438-.64.156-1.344.156-2.5 0-3.828-1.64-1.312-1.657-1.312-4.782t1.312-4.781q1.328-1.656 3.828-1.656.703 0 1.344.156.656.156 1.219.453v2.719q-.625-.578-1.219-.844-.594-.281-1.219-.281-1.343 0-2.031 1.078-.687 1.062-.687 3.156t.687 3.172q.688 1.062 2.031 1.062.625 0 1.219-.265.594-.281 1.219-.86z"/><text x="41" y="32.78" fill="#D9B8FF" font-family="Helvetica" font-size="17" textLength="269">aws_backup_protected_resource</text><rect width="263" height="39.789" x="160" y="106.79" fill="#3D176E" rx="2.5" ry="2.5" style="stroke:#000d19;stroke-width:.5"/><circle cx="175" cy="126.684" r="11" fill="#ADD1B2" style="stroke:#181818;stroke-width:1"/><path d="M177.969 132.325q-.578.297-1.219.438-.64.156-1.344.156-2.5 0-3.828-1.64-1.312-1.657-1.312-4.782t1.312-4.781q1.328-1.656 3.828-1.656.703 0 1.344.156.656.156 1.219.453v2.719q-.625-.579-1.219-.844-.594-.281-1.219-.281-1.344 0-2.031 1.078-.687 1.062-.687 3.156t.687 3.172q.688 1.062 2.031 1.062.625 0 1.219-.265.594-.281 1.219-.86z"/><text x="194" y="132.57" fill="#D9B8FF" font-family="Helvetica" font-size="17" textLength="221">aws_cloudformation_stack</text><rect width="137" height="39.789" x="353" y="7" fill="#3D176E" rx="2.5" ry="2.5" style="stroke:#000d19;stroke-width:.5"/><circle cx="368" cy="26.895" r="11" fill="#ADD1B2" style="stroke:#181818;stroke-width:1"/><path d="M370.969 32.535q-.578.297-1.219.438-.64.156-1.344.156-2.5 0-3.828-1.64-1.312-1.657-1.312-4.782t1.312-4.781q1.328-1.656 3.828-1.656.703 0 1.344.156.656.156 1.219.453v2.719q-.625-.578-1.219-.844-.594-.281-1.219-.281-1.344 0-2.031 1.078-.687 1.062-.687 3.156t.687 3.172q.688 1.062 2.031 1.062.625 0 1.219-.265.594-.281 1.219-.86z"/><text x="387" y="32.78" fill="#D9B8FF" font-family="Helvetica" font-size="17" textLength="95">aws_region</text><rect width="155" height="39.789" x="214" y="206.58" fill="#3D176E" rx="2.5" ry="2.5" style="stroke:#000d19;stroke-width:.5"/><circle cx="229" cy="226.475" r="11" fill="#ADD1B2" style="stroke:#181818;stroke-width:1"/><path d="M231.969 232.115q-.578.297-1.219.438-.64.156-1.344.156-2.5 0-3.828-1.64-1.312-1.657-1.312-4.782t1.312-4.781q1.328-1.656 3.828-1.656.703 0 1.344.156.656.156 1.219.453v2.719q-.625-.578-1.219-.844-.594-.281-1.219-.281-1.344 0-2.031 1.078-.687 1.062-.687 3.156t.687 3.172q.688 1.062 2.031 1.062.625 0 1.219-.265.594-.281 1.219-.86z"/><text x="248" y="232.36" fill="#D9B8FF" font-family="Helvetica" font-size="17" textLength="113">aws_resource</text><path fill="none" d="M187.99 47.22c22.61 17.14 50.7 38.424 73.3 55.564" style="stroke:#1a83af;stroke-width:2"/><path fill="#1A83AF" d="m266.07 106.41-4.754-8.626.77 5.605-5.604.77z" style="stroke:#1a83af;stroke-width:2"/><path fill="none" d="M291.5 147.01v53.19" style="stroke:#1a83af;stroke-width:2"/><path fill="#1A83AF" d="m291.5 206.2 4-9-4 4-4-4z" style="stroke:#1a83af;stroke-width:2"/><path fill="none" d="M395.82 47.22c-22.79 17.14-51.116 38.443-73.896 55.583" style="stroke:#1a83af;stroke-width:2"/><path fill="#1A83AF" d="m317.13 106.41 9.597-2.215-5.602-.791.792-5.601z" style="stroke:#1a83af;stroke-width:2"/></svg>
